!!!!SEGMENT:11Yukarizuki_c.krn
!!!OTL: ゆかり月
!!!OPR:Eiga Banso Kyokusyu,jidai-geki,zenpen
!!!YOY:1929
!!!ONB:Shizukana_bamen
**kern
*clefG2
*k[]
*C:
*M2/4
!LO:TX:a:B:t=Andante
4r
=1
2e
=2
4d
4e
=3
2f
=4
2e
=5
8.eL
16BJk
4B
=6
2B
=7
2B
=8
4e
4d
=9
2e
=10
4e
4e
=11
2e
=12
2B
=13
4d
4e
=14
2f
=15
4a
4b
=16
4cc
4a
=17
2f
=18
4f
[4e
=19
4e]
4d
=20
4e
4e
=21
4cc
4a
=22
2f
=23
2f
=24
4e
4r
=25
4b
4e
=26
2B
=27
4b
4r
=28!|:
[2cc
=29
4cc]
4cc
=30:|!
2cc
=31
4b
(8aL
8bJ)
=32
4B
[4b
=33
4b]
4ee
=34
4cc
[4b
=35
8.bL]
16aJk
8.eL
16fJk
=36
2e
=37
4a
4f
=38
8.eL
16cJk
4B
=39
4B
4r
=40
4dd
4ee
=41
2ff
=42
2ee
=43
4dd
4ee
=44
2ff
=45
4..ee
16cc
=46
4b
4a
=47
4cc
4cc
=48
4b
4r
==
*-
!!!ENC: Yukiko Yoden
!!!END: 2023/06/11
